X: 980
T: Trip To Durrow, The
B: jims roots
M:4/4
L:1/8
R: reel
Q: 1/4=100
K:Dmaj
V:1 
|:"D"D3F ADFA|dfed "G"B3c|dBBA dBBA|"D"FADE "A"FE E2|
"D"D3F ADFA|dfed "G"B3c|dBBA FAdB|"A"AFEG "D"FD D2:||
|:"D"d3e fefg|afdf "Em"gfed|(3Bcd ef gebe|gebe "A"gfef|
"D"dcde fefg|afdf "Em"gfed|(3Bcd ef gbag|"A"fdec "D"d2de|
"D"fdec d2de|fded "G"B3c|dBBA dBBA|"D"FADE "A"FE E2|
"D"D3F ADFA|dfed "G"B3c|dBBA FAdB|"A"AFEG "D"FD D2||
% abcbook-tune_id 6298c2975ec2ff6d01272bc4


% abcbook-boost 0
% abcbook-tablature 
% abcbook-transpose 
% abcbook-lastupdated 1654178456257
% abcbook-soundfonts 
% abcbook-repeats 1


